!!! OTL: Literature53
!!! Chapter: 5
!!! Section: II
!!! Page: 356
!!! Mode: 
!!! Encoder: DJB
**kern
*staff1
*I"Piano
=1-
*clefG2
*k[f#c#]
*D:
*M4/4
4r
4r
4ff#\
8a/L
8a/J
=2
4a/
4g/
4ee\
8g/L
8g/J
=3
4g/
4f#/
4dd\
8d/L
8d/J
=4
8d/L
8dd/
8d/
8e/J
8f#/L
8e/
8f#/
8f#/J
=5
2e/
4ff#\
8a/L
8a/J
=6
4a/
4g/
4ee\
8g/L
8g/J
=7
4g/
4f#/
4dd\
8d/L
8d/J
=8
!!linebreak:original
8d/L
8dd/
8d/
8e/J
8f#/L
8g/
8e/
8f#/J
=9
2d/
2r
==
*-
